X:1
T:Title
%%score { ( 1 2 ) | ( 3 4 ) }
L:1/8
Q:1/4=108
M:3/2
K:Ab
V:1 treble nm="Midi_74"
V:2 treble 
V:3 bass 
V:4 bass 
V:1
"^John Henry Newman\n(1801-90)" E2 A2 B2 | c3"^Lead, kindly Light" c B2 A2 F2 A2 | (F4 E8) | %3
w: |||
w: |||
w: |||
 A4 G4"^John Bacchus Dykes\n(1823-76)" A4 | B6 E2 A2 B2 | c3 c B2 A2 F2 A2 | (F4 E8) | E4 A6 G2 | %8
w: |on; The night is|dark, and I am far from||Lead Thou me|
w: |on; I loved to|choose, and see my path: but||Lead Thou me|
w: |on; O'er moor and|fen, o'er crag and tor- rent,||The night is|
 (G4 A8) | B4 B4 B4 | B8 B4 | B2 c2 (B2 A2) (G2 F2) | E12 | c4 B4 A4 | A6 A2 G2 F2 | (E4 A6) G2 | %16
w: on! *|Keep Thou *|feet; I|do not ask * to *|||||
w: on! *|I loved *|gar- ish|day, and, spite * of *|||||
w: gone; *|And, with *|morn, those|an- gel fa\- * ces *|||||
 (G4[Q:1/4=54] !fermata!A2) |] %17
w: |
w: |
w: |
V:2
 E2 E2 E2 | E3 C D2 E2 E2 D2 | (D4 E8) | E4 E4 (E2 C2) | D6 E2 E2 E2 | E3 C D2 E2 E2 D2 | (D4 C8) | %7
w: ~Lead, kind- ly|Light, a- mid th'en- cir- cling||Lead Thou me *||||
w: I was not|ev- er thus, nor prayed that||Shouldst lead me *||||
w: So long Thy|pow'r hath blest me, sure it||Will lead me *||||
 C4 E6 E2 | E12 | E4 =D4 E4 | F8 E4 | E2 E2 =D4 D4 | (E4 C4 _D4) | C4 D4 (E2 =E2) | F6 F2 E2 D2 | %15
w: ||||||The * tant *|scene; one step e-|
w: ||||||Pride * my *|will: re- mem- ber|
w: ||||||Which * have *|loved long since, and|
 (C4 E6) D2 | (D4 C2) |] %17
w: nough * for|me. *|
w: not * past|years! *|
w: lost * a-|while. *|
V:3
 C2 C2 D2 | C3 A, A,2 A,2 A,2 A,2 | (A,4 C4 D4) | E4 D4 (C2 A,2) | (A,4 G,2) D2 D2 D2 | %5
w: ||gloom * *|||
w: ||Thou * *|||
w: ||still * *|||
 C3 A, A,2 A,2 A,2 A,2 | A,12 | A,4 C6 B,2 | (D4 C8) | B,4 A,4 (G,2 C2) | (B,4 A,4) G,4 | %11
w: ||||* * my *||
w: ||||* * the *||
w: ||||* * the *||
 G,2 G,2 A,4 A,4 | (G,4 A,4 B,4) | A,4 (F,2 G,2) A,4 | A,6 F,2 G,2 A,2 | (A,4 C6) B,2 | %16
w: |see * *|* dis\- * *|||
w: |fears, * *|* ruled * *|||
w: |smile * *|* I * *|||
 (B,4 A,2) |] %17
w: |
w: |
w: |
V:4
 A,2 A,2 A,2 | A,3 A,, B,,2 C,2 D,2 F,2 | A,8- B,4 | C4 B,4 A,4 | E,6 E,2 F,2 G,2 | %5
w: |||||
w: |||||
w: |||||
 A,3 A,, B,,2 C,2 D,2 F,2 | (A,4 A,,4 C,4) | E,4 E,6 E,2 | (E,4 A,8) | G,4 F,4 E,4 | =D,8 E,4 | %11
w: |home * *|||||
w: |now * *|||||
w: |till * *|||||
 B,,2 B,,2 B,,4 B,,4 | E,12 | A,,4 B,,4 C,4 | D,6 D,2 D,2 D,2 | E,8 E,4 | (E,4 !fermata!A,,2) |] %17
w: ||||||
w: ||||||
w: ||||||

